src/images/crypto-icon-svg/grs.svg

<svg xmlns="http://www.w3.org/2000/svg" width="32" height="32" viewBox="0 0 32 32">
  <g fill="none" fill-rule="evenodd">
    <circle cx="16" cy="16" r="16" fill="#377E96"/>
    <path fill="#FFF" d="M23.624548,30.0699738 C23.6532273,30.049396 23.6814996,30.0286644 23.7093573,30.0077794 C23.4774814,29.5832858 23.1012451,29.3597984 22.6776818,29.2590308 C22.0743287,29.1151526 21.4601354,28.9821181 20.843827,28.9382141 C19.4753102,28.8403557 18.1020343,28.8168168 16.73246,28.7337695 C15.2058341,28.6409363 13.6813233,28.5116045 12.1549618,28.4116303 C12.0219703,28.4029024 11.831076,28.4528895 11.7546654,28.5470451 C11.3546333,29.0376593 10.9683499,29.5412331 10.607713,30.0614693 C10.4318892,30.3156365 10.3226934,30.6160881 10.185736,30.8906205 C10.2201614,30.9111539 10.2551612,30.9313915 10.2907222,30.9513342 C9.68611746,30.7203245 9.09911709,30.4536957 8.53228746,30.1540144 C8.63564573,30.1739052 8.77235227,30.1583337 8.82306241,30.1074098 C9.44915354,29.4803229 10.0548861,28.8326064 10.6643203,28.1930888 C10.2085005,27.8286326 9.76378548,27.5064934 9.3589943,27.1404503 C8.98064278,26.7979461 8.82332681,26.3448883 8.85558319,25.8262391 C8.90555415,25.0288257 9.25482204,24.3496358 9.76828022,23.780206 C10.3753348,23.1073637 11.0564204,22.5009064 11.7060428,21.866414 C11.7850974,21.7894497 11.8689111,21.7177751 11.943471,21.6498032 C11.9183533,21.6058992 11.9154449,21.593204 11.9077774,21.5884433 C11.8445867,21.5508869 11.7808671,21.5143884 11.7171475,21.4776254 C9.6302652,20.2739676 8.58933582,18.4448098 8.56157418,16.0573305 C8.53804289,14.0144712 9.40790767,12.3590781 10.9472246,11.0520079 C12.4466177,9.77905583 14.2143733,9.3318167 16.1526647,9.3759852 C17.587545,9.40851649 18.9288289,9.72615942 20.1781028,10.438674 C20.2479035,10.4783463 20.424256,10.4317975 20.4879756,10.3648835 C21.0794308,9.74599557 21.6788179,9.13266172 22.2319355,8.48044902 C22.9196311,7.66981157 23.5020968,6.78961534 23.7432265,5.72798444 C23.9312124,4.90015566 23.8511003,4.12231398 23.25092,3.47618436 C22.3699506,2.52748729 20.8539005,2.65470315 20.0810693,3.73564124 C19.9290412,3.9482848 19.8404684,4.2058903 19.6924063,4.42250109 C19.6374118,4.5034326 19.4967528,4.52617805 19.3949601,4.57563619 C19.3706356,4.48677023 19.3145836,4.39340807 19.327539,4.31036071 C19.3619105,4.08184823 19.405536,3.85069093 19.4814178,3.63355117 C19.8616201,2.54388517 20.5667658,1.80042616 21.750205,1.63406696 C22.1359596,1.57958366 22.5357272,1.62533905 22.93761,1.62533905 C22.9183091,1.59836188 22.9098484,1.57588091 22.894249,1.56768197 C22.8199536,1.52774518 22.7440717,1.48992425 22.6671323,1.45474814 C21.8994958,1.10502205 21.1220244,0.81811735 20.3352944,0.59428857 C21.8515962,1.02011787 23.2767541,1.66378478 24.5748698,2.48939108 C24.5825422,2.5757605 24.5784092,2.5987797 24.588,2.61058754 C25.4708202,3.69972458 25.3573941,4.85524661 24.8016325,6.03007582 C24.3304777,7.02558622 23.6417246,7.86849047 22.8990346,8.66987105 C22.2190065,9.40433767 21.5350126,10.1351015 20.8502254,10.8700971 C20.8777226,10.8878174 20.8938508,10.9079181 20.9102434,10.9079181 C21.9569895,10.9092405 23.004,10.9235225 24.0502173,10.9023639 C24.5961963,10.8915202 25.0810996,10.7106145 25.4176765,10.2279347 C25.4824537,10.1351015 25.6561622,10.1181747 25.7798998,10.0663362 C25.8034311,10.0988675 25.8269624,10.1311343 25.8502293,10.1634011 C25.5593931,10.9986354 25.2735804,11.8357211 24.9682023,12.6654012 C24.9422914,12.7357534 24.7870906,12.7923526 24.6895283,12.7963198 C24.3199019,12.8116598 23.9494822,12.8026674 23.5795914,12.8026674 C23.1512689,12.8029319 22.7229464,12.8026674 22.2512629,12.8026674 C22.3194773,12.9386112 22.3601943,13.0211296 22.401969,13.1033835 C23.1211277,14.5138662 23.3130796,16.0076607 22.9490055,17.5334576 C22.4122805,19.7839353 20.9401202,21.2369996 18.7987722,21.9936827 C17.0513752,22.6109838 15.2571799,22.5885028 13.4616626,22.1600419 C13.3032891,22.1224855 13.0568715,22.0896897 12.9720002,22.1748529 C12.5862455,22.5607322 12.1780172,22.9500498 11.9001364,23.4118354 C11.3266602,24.3642352 11.6592711,25.0264983 12.7520222,25.2560687 C12.7623337,25.258449 12.7729095,25.2592425 12.7834854,25.2600359 C13.8553492,25.3425543 14.925891,25.4446444 15.9990767,25.5036239 C17.5167132,25.5869357 19.0369936,25.6202604 20.5538368,25.7112423 C21.4728794,25.7662545 22.3800241,25.928382 23.2083786,26.3666288 C24.2741613,26.929711 25.0292779,27.7604491 25.3600381,28.9728348 C25.4382663,28.91814 25.5162913,28.8623963 25.5940835,28.8056137 C24.9712223,29.2730143 24.3131459,29.6960323 23.624548,30.0699738 Z M18.7750067,31.7602174 C17.8736949,31.9178239 16.9464441,32 16,32 C15.9448275,32 15.8897203,31.9997207 15.8346796,31.9991636 C16.8132709,31.9901961 17.8133053,31.9092059 18.7750067,31.7602174 Z M31.9999214,16.0506908 C31.9999738,16.0338 32,16.0169031 32,16 C32,14.6202249 31.8253485,13.2812418 31.4969467,12.0039521 C31.6823496,12.7509135 31.8187015,13.5269297 31.9049113,14.332696 C31.9673162,14.9160818 31.9981755,15.4890231 31.9999214,16.0506908 Z M28.2808657,5.74364535 C27.3547375,4.6358985 26.2815297,3.65535058 25.0912659,2.83202512 C26.3084664,3.71209757 27.3740292,4.6811321 28.2808657,5.74364535 Z M8.30472746,30.0313355 C7.51292366,29.5961584 6.76193712,29.0959083 6.05896992,28.5377871 C6.77217622,29.0792568 7.54995779,29.5426703 8.30472737,30.0313355 Z M3.02503135e-05,16.0314496 C0.000947688089,15.5515661 0.0227299974,15.0692039 0.0649253233,14.58443 C0.0972315315,14.2135172 0.141087166,13.846992 0.196539952,13.4849242 C0.0671752302,14.3042693 0,15.1442899 0,16 C0,16.0104856 1.00864956e-05,16.0209688 3.02503135e-05,16.0314496 Z M2.91646551,6.7878518 C3.04538777,6.60794504 3.17863253,6.4298261 3.31621021,6.25351025 C3.85271138,5.56599757 4.42264987,4.93342618 5.02588502,4.35653853 C4.24446322,5.09330973 3.53719674,5.90787414 2.91646551,6.7878518 Z M11.1331198,0.753651998 C11.9709001,0.494051222 12.84513,0.298559461 13.7556452,0.168043016 C14.5237304,0.057848522 15.2852642,0.00191693126 16.0397942,4.84344463e-05 C16.0265332,1.61510112e-05 16.0132685,0 16,0 C14.3030434,0 12.6677889,0.264178392 11.1331198,0.753651998 Z M19.5662891,16.6563294 C19.5459306,16.6510397 19.525572,16.6462791 19.5052135,16.6409894 C19.4711063,16.1569873 19.451541,15.6713983 19.400248,15.1892475 C19.2817984,14.0726043 18.9647869,13.0194369 18.3500648,12.0683595 C17.4408049,10.6605216 15.9205245,10.0929431 14.4618485,10.6565543 C13.2649251,11.1188689 12.6301089,12.0686239 12.343503,13.2796872 C12.0724965,14.4256879 12.0933838,15.5870285 12.2324565,16.743344 C12.3649191,17.8433248 12.6787579,18.8904092 13.3125165,19.8213859 C14.125536,21.0155224 15.2605906,21.5378744 16.6724684,21.3024854 C18.0111084,21.079527 18.8540047,20.2133483 19.1974559,18.9242629 C19.3939025,18.1879449 19.4481038,17.4135415 19.5662891,16.6563294 Z"/>
  </g>
</svg>

<svg xmlns="http://www.w3.org/2000/svg" width="32" height="32"><g fill="none" fill-rule="evenodd"><circle cx="16" cy="16" r="16" fill="#377E96"/><path fill="#FFF" d="M23.625 30.07l.084-.062c-.232-.425-.608-.648-1.031-.749-.604-.144-1.218-.277-1.834-.32-1.369-.099-2.742-.122-4.112-.205-1.526-.093-3.05-.222-4.577-.322-.133-.01-.324.04-.4.135-.4.49-.787.994-1.147 1.514-.176.255-.285.555-.422.83l.105.06a15.916 15.916 0 0 1-1.759-.797c.104.02.24.004.291-.047.626-.627 1.232-1.274 1.841-1.914-.455-.364-.9-.687-1.305-1.053-.378-.342-.536-.795-.503-1.314.05-.797.399-1.476.912-2.046.607-.673 1.288-1.28 1.938-1.914.08-.077.163-.148.237-.216-.025-.044-.028-.057-.035-.062l-.19-.11c-2.088-1.204-3.129-3.033-3.156-5.42-.024-2.044.846-3.699 2.385-5.006 1.5-1.273 3.267-1.72 5.206-1.676 1.435.033 2.776.35 4.025 1.063.07.04.246-.007.31-.074.591-.619 1.19-1.232 1.744-1.885.688-.81 1.27-1.69 1.511-2.752.188-.828.108-1.606-.492-2.252-.881-.949-2.397-.821-3.17.26-.152.212-.24.47-.389.687-.055.08-.195.103-.297.153-.024-.09-.08-.183-.067-.266.034-.228.078-.46.153-.676.38-1.09 1.086-1.834 2.27-2 .385-.054.785-.009 1.187-.009-.02-.027-.028-.05-.044-.057a3.943 3.943 0 0 0-.227-.113 16.533 16.533 0 0 0-2.332-.86 15.918 15.918 0 0 1 4.24 1.894c.008.087.003.11.013.122.883 1.089.77 2.244.214 3.42-.472.995-1.16 1.837-1.903 2.639-.68.734-1.364 1.465-2.049 2.2.028.018.044.038.06.038 1.047.001 2.094.016 3.14-.006.546-.01 1.031-.191 1.368-.674.064-.093.238-.11.362-.162l.07.097c-.29.836-.576 1.673-.882 2.502-.026.07-.18.127-.278.131-.37.016-.74.007-1.11.007H22.25l.151.3c.72 1.41.911 2.905.547 4.43-.537 2.25-2.009 3.704-4.15 4.46-1.748.618-3.542.596-5.337.167-.159-.038-.405-.07-.49.015-.386.386-.794.775-1.072 1.237-.573.952-.24 1.614.852 1.844l.031.004c1.072.083 2.143.185 3.216.244 1.518.083 3.038.116 4.555.207.919.055 1.826.217 2.654.656 1.066.563 1.821 1.393 2.152 2.606.078-.055.156-.11.234-.167-.623.467-1.28.89-1.97 1.264zm-4.85 1.69a16.1 16.1 0 0 1-2.94.24 20.61 20.61 0 0 0 2.94-.24zM32 16.05V16c0-1.38-.175-2.719-.503-3.996A17.292 17.292 0 0 1 32 16.051zM28.28 5.745a16.09 16.09 0 0 0-3.189-2.912c1.217.88 2.283 1.85 3.19 2.912zM8.306 30.03a16.026 16.026 0 0 1-2.246-1.493c.713.541 1.491 1.005 2.246 1.493zM0 16.031a17.058 17.058 0 0 1 .197-2.546A16.119 16.119 0 0 0 0 16.03zm2.916-9.243a17.604 17.604 0 0 1 2.11-2.431 16.087 16.087 0 0 0-2.11 2.43zM11.133.754A16.994 16.994 0 0 1 16 0a15.99 15.99 0 0 0-4.867.754zm8.433 15.902l-.06-.015c-.035-.484-.054-.97-.106-1.452-.118-1.116-.435-2.17-1.05-3.12-.91-1.408-2.43-1.976-3.888-1.412-1.197.462-1.832 1.412-2.118 2.623-.272 1.146-.25 2.307-.112 3.463.133 1.1.447 2.147 1.08 3.078.814 1.195 1.949 1.717 3.36 1.481 1.34-.222 2.182-1.089 2.525-2.378.197-.736.251-1.51.37-2.268z"/></g></svg>
